X: 9809
T: Denis Murphy's
R: slide
M: 12/8
K: Gmajor
|:B3 BAB d2 B G2 A|B2 e d2 B A2 B G2 A|
B3 BAB d2 B G2 A|1 Bee e2 d e2 f ged:|2 Bee e2 d e3- e2 d||
|:B2 g g2 f g2 e dBA|B2 g g2 f g3 g2 a|
bag agf gfe fed|1 Bee e2 d e3- e2 d:|2 Bee e2 d e2 f ged||

